X:1
T:Title
%%score { ( 1 3 ) | ( 2 4 ) }
L:1/8
M:4/4
K:Ab
V:1 treble nm="Grand Piano"
V:3 treble 
V:2 bass 
V:4 bass 
V:1
 z4 z2[Q:1/4=100] [CE]>[DF] | [CE]2 [Ec]2 [CA]2 C>[B,D] |[M:3/4] [CE]>[CE] [Ec]>[DB] [CA]2 | %3
[M:1/4] [EB]>[Ac] |[M:4/4] [Gd]2 [Gd]>[Gd] c2 z =D |[M:3/4] [GB]6 |[M:1/4] [CE]>[DF] | %7
[M:4/4] [CE]2 [Ec]2 [CA]2 C>[B,D] |[M:3/4] [CE]>[CE] [Ec]>[DB] [CA]2 |[M:1/4] [FA]3/2 z/ | %10
[M:4/4] [B,EG]2 [B,EG]2 [B,=DA]3 [A,DF] |[M:3/4] [G,E]6 |[M:1/4] E2 |[M:4/4] E>F G>A B2 G>G | %14
 G>A B>c d2 [EGe]>[EGe] | [EAc]2 [EAc]2 [Ece]2 [EAc]2 | [EGB]6 [A,CA]>[DB] | %17
 [Ec]2 [DB]2 [CA]2 [EG]>[EG] |[M:9/8] [EG]>F=E- E/F/ [Fd]2- [Fd][_Ec]B | %19
[M:19/16] A-<AE-<Ec/-c/-c/-c/-c/-c-<cB |[M:3/4] [CA]6 |] %21
V:2
 z4 z2 [A,,A,]>[A,,A,] | [A,,A,]2 [A,,A,]2 [A,,A,]2 [A,,A,]>[A,,A,] | %2
[M:3/4] [A,,A,]>[A,,A,] [A,,A,]>[A,,A,] [A,,A,]2 |[M:1/4] [E,G,]>[E,A,] | %4
[M:4/4] [E,B,]2 [E,B,]>[E,B,] [A,A]2 .[F,C]2 |[M:3/4] [E,E]6 |[M:1/4] [A,,A,]>[A,,A,] | %7
[M:4/4] [A,,A,]2 [A,,A,]2 [A,,A,]2 [A,,A,]>[A,,A,] | %8
[M:3/4] [A,,A,]>[A,,A,] [A,,A,]>[A,,A,] [A,,A,]2 |[M:1/4] z z/ F/ |[M:4/4] B,,2 B,,2 B,,3 B,, | %11
[M:3/4] E,6 |[M:1/4] E,2 |[M:4/4] E,>F, G,>A, B,2 G,>G, | G,>A, B,>C D2 E,>E, | A,2 A,2 A,2 A,2 | %16
 E,2 E,F, E,D, C,>[B,,G,] | [A,,A,]2 [A,,A,]2 [A,,A,]2 [C,A,]>[C,A,] | %18
[M:9/8] [D,A,]>[D,A,D][D,A,D]- [D,A,D]/[D,A,D]/ [B,,B,]2- [B,,B,][C,A,][D,F,D] | %19
[M:19/16] [E,C]-<[E,C][E,A,C]-<[E,A,C][E,G,E]/-[E,G,E]/-[E,G,E]/-[E,G,E]/-[E,G,E]/-[E,G,E]-<[E,G,E][E,G,D] | %20
[M:3/4] [A,,A,]6 |] %21
V:3
 x8 | x8 |[M:3/4] x6 |[M:1/4] x2 |[M:4/4] z4 z2 A2 |[M:3/4] x6 |[M:1/4] x2 |[M:4/4] x8 | %8
[M:3/4] x6 |[M:1/4] C->[CA] |[M:4/4] x8 |[M:3/4] x6 |[M:1/4] x2 |[M:4/4] x8 | x8 | x8 | x8 | x8 | %18
[M:9/8] x9 |[M:19/16] x19/2 |[M:3/4] x6 |] %21
V:4
 x8 | x8 |[M:3/4] x6 |[M:1/4] x2 |[M:4/4] x8 |[M:3/4] x6 |[M:1/4] x2 |[M:4/4] x8 |[M:3/4] x6 | %9
[M:1/4] A,,2 |[M:4/4] x8 |[M:3/4] x6 |[M:1/4] x2 |[M:4/4] x8 | x8 | x8 | x8 | x8 |[M:9/8] x9 | %19
[M:19/16] x19/2 |[M:3/4] x6 |] %21

